icons/service-fill.svg

<svg viewBox="0 0 24 24" fill="currentColor" xmlns="http://www.w3.org/2000/svg">
    <path d="M14.1213 10.4792C13.7308 10.0886 13.0976 10.0886 12.7071 10.4792L12 11.1863C11.2189 11.9673 9.95259 11.9673 9.17154 11.1863C8.39049 10.4052 8.39049 9.13888 9.17154 8.35783L14.8022 2.72568C16.9061 2.24973 19.2008 2.83075 20.8388 4.46875C23.2582 6.88811 23.3716 10.7402 21.1792 13.2939L19.071 15.4289L14.1213 10.4792ZM3.16113 4.46875C5.33452 2.29536 8.66411 1.98283 11.17 3.53116L7.75732 6.94362C6.19523 8.50572 6.19523 11.0384 7.75732 12.6005C9.27209 14.1152 11.6995 14.1611 13.2695 12.7382L13.4142 12.6005L17.6568 16.8431L13.4142 21.0858C12.6331 21.8668 11.3668 21.8668 10.5858 21.0858L3.16113 13.6611C0.622722 11.1227 0.622722 7.00715 3.16113 4.46875Z"/>
</svg>

<svg xmlns="http://www.w3.org/2000/svg" viewBox="0 0 24 24">
    <g>
        <path fill="none" d="M0 0h24v24H0z"/>
        <path d="M14.121 10.48a1 1 0 0 0-1.414 0l-.707.706a2 2 0 1 1-2.828-2.828l5.63-5.632a6.5 6.5 0 0 1 6.377 10.568l-2.108 2.135-4.95-4.95zM3.161 4.468a6.503 6.503 0 0 1 8.009-.938L7.757 6.944a4 4 0 0 0 5.513 5.794l.144-.137 4.243 4.242-4.243 4.243a2 2 0 0 1-2.828 0L3.16 13.66a6.5 6.5 0 0 1 0-9.192z"/>
    </g>
</svg>
